X: 11484
T: SIR GEORGE CLERK OF PENNYCUICK
C: Nathaniel Gow
Q: "Slowly."
%R: strathspey
B: W. Hamilton "Universal Tune-Book" Vol. 1 Glasgow 1844 p.148 #4 (and p.149 #1)
S: http://imslp.org/wiki/Hamilton's_Universal_Tune-Book_(Various)
Z: 2016 John Chambers <jc:trillian.mit.edu>
M: C
L: 1/16
K: G
%%slurgraces yes
%%graceslurs yes
% - - - - - - - - - - - - - - - - - - - - - - - - -
ga |\
bg3 Tg4 dB3 TB4 | ce3ce3 A6 Bc |\
dB3 TB4 GE3 E4 | "^sf"cA3BG3 (GF).E.D D2ga |\
bg3 Tg4 dB3 TB4 | ce3ce3 A6 Bc |\
dB3 TB4 e3EE3G | GFED ~E2F2 G6 :|
|: dc |\
Bd3 ~d4 db3b3a | g3ee3d d6 dc |\
Bd3 d4 "^sf"e3B c4 | d3AB3G (GF).E.D D2EF |\
!p!GB3 TB4 Bd3 d4 | g3d{f}e3d Hd8 |\
([d'd]b3) (bg3) (ge3) (ec3) |B3G A3F G6 :|
% - - - - - - - - - - - - - - - - - - - - - - - - -

% (Continued from previous page)

%%sep 1 1 500
%%sep 1 1 500

